assets/images/icon-mail-lg.svg

<svg height="48" viewBox="0 0 48 48" width="48" xmlns="http://www.w3.org/2000/svg"><path d="m45.2310852 8.09177273c-.003-.003-.0049772-.00702273-.0070227-.01002273-.4611818-.64759091-.9784091-1.26702273-1.5587045-1.84745455-2.73075-2.73061363-6.3604773-4.23429545-10.2218864-4.23429545-3.5286136 0-6.8646818 1.25604545-9.4970455 3.55568182-2.6323636-2.29963637-5.9674772-3.55568182-9.4960909-3.55568182-3.8613409 0-7.49215906 1.50368182-10.22284088 4.23429545-5.63665909 5.63665905-5.63665909 14.80840905 0 20.44486365l18.99313638 18.9930682c.2004545.2004545.4630909.3006818.7257954.3006818.2626364 0 .5252046-.1002273.7257273-.3006818l18.9932046-18.9930682c5.0532954-5.0530227 5.5725-12.9456818 1.5657272-18.58738637zm-30.7806818-4.03881818c3.3130909 0 6.4276364 1.29013636 8.7702955 3.63286363.1924772.19247727.4540909.30075.7257954.30075.2726591 0 .53325-.10827273.7257273-.30075 2.3427273-2.34265909 5.4572727-3.63286363 8.7713182-3.63286363 3.3130909 0 6.4275682 1.29013636 8.7702954 3.63286363.2826818.28268182.5442955.57743182.7939773.87811364l-11.8508182 11.85129548c-.0010227.0010227-.0010227.0010227-.0019773.0020454l-.0010227.0019773-7.2075 7.2062045-7.2065454-7.20525s-.0010228-.0020454-.0019773-.003c-.0010227-.0010227-.0020455-.0020454-.003-.0020454l-11.84979546-11.85027274c.24961363-.30170454.51225-.59645454.79397727-.87913636 2.34265909-2.34265909 5.45822729-3.63279545 8.77124999-3.63279545zm-10.74613635 6.23413635 10.85638635 10.8558409-6.48272726 6.4825227-2.39884091-2.3978181c-4.04379546-4.0435909-4.69240909-10.2020455-1.97481818-14.9405455zm20.24222725 33.2078864-14.41704544-14.418 6.48272724-6.4825228 7.2085228 7.20825c.1924772.1924091.4540909.30075.7257954.30075.2726591 0 .53325-.1083409.7257273-.30075l7.2085909-7.20825 6.4838182 6.4825228zm18.2673409-18.2673409-2.3978182 2.3978181-6.48375-6.4825227 10.8563182-10.8558409c2.7185455 4.7385 2.0690455 10.8969546-1.97475 14.9405455z" fill="#e03131"/></svg>

<svg xmlns="http://www.w3.org/2000/svg" width="48" height="48" viewBox="0 0 48 48">
  <path fill="#E03131" d="M45.2310852,8.09177273 C45.2280852,8.08877273 45.226108,8.08475 45.2240625,8.08175 C44.7628807,7.43415909 44.2456534,6.81472727 43.665358,6.23429545 C40.934608,3.50368182 37.3048807,2 33.4434716,2 C29.914858,2 26.5787898,3.25604545 23.9464261,5.55568182 C21.3140625,3.25604545 17.9789489,2 14.4503352,2 C10.5889943,2 6.95817614,3.50368182 4.22749432,6.23429545 C-1.40916477,11.8709545 -1.40916477,21.0427045 4.22749432,26.6791591 L23.2206307,45.6722273 C23.4210852,45.8726818 23.6837216,45.9729091 23.9464261,45.9729091 C24.2090625,45.9729091 24.4716307,45.8726818 24.6721534,45.6722273 L43.665358,26.6791591 C48.7186534,21.6261364 49.237858,13.7334773 45.2310852,8.09177273 Z M14.4504034,4.05295455 C17.7634943,4.05295455 20.8780398,5.34309091 23.2206989,7.68581818 C23.4131761,7.87829545 23.6747898,7.98656818 23.9464943,7.98656818 C24.2191534,7.98656818 24.4797443,7.87829545 24.6722216,7.68581818 C27.0149489,5.34315909 30.1294943,4.05295455 33.4435398,4.05295455 C36.7566307,4.05295455 39.871108,5.34309091 42.2138352,7.68581818 C42.496517,7.9685 42.7581307,8.26325 43.0078125,8.56393182 L31.1569943,20.4152273 C31.1559716,20.41625 31.1559716,20.41625 31.155017,20.4172727 L31.1539943,20.41925 L23.9464943,27.6254545 L16.7399489,20.4202045 C16.7399489,20.4202045 16.7389261,20.4181591 16.7379716,20.4172045 C16.7369489,20.4161818 16.7359261,20.4151591 16.7349716,20.4151591 L4.88517614,8.56488636 C5.13478977,8.26318182 5.39742614,7.96843182 5.67915341,7.68575 C8.0218125,5.34309091 11.1373807,4.05295455 14.4504034,4.05295455 Z M3.70426705,10.2870909 L14.5606534,21.1429318 L8.07792614,27.6254545 L5.67908523,25.2276364 C1.63528977,21.1840455 0.986676136,15.0255909 3.70426705,10.2870909 Z M23.9464943,43.4949773 L9.52944886,29.0769773 L16.0121761,22.5944545 L23.2206989,29.8027045 C23.4131761,29.9951136 23.6747898,30.1034545 23.9464943,30.1034545 C24.2191534,30.1034545 24.4797443,29.9951136 24.6722216,29.8027045 L31.8808125,22.5944545 L38.3646307,29.0769773 L23.9464943,43.4949773 Z M42.2138352,25.2276364 L39.816017,27.6254545 L33.332267,21.1429318 L44.1885852,10.2870909 C46.9071307,15.0255909 46.2576307,21.1840455 42.2138352,25.2276364 Z"/>
</svg>
